deafened_self.svg

<svg width="512" xmlns="http://www.w3.org/2000/svg" height="512" viewBox="0 0 512 512">
    <path fill="#e74c3c" d="m511.603,303.727-47.694,47.726-47.726-47.726-47.726,47.726-47.693-47.726 47.693-47.727-47.693-47.725 47.693-47.726 47.726,47.726 47.726-47.726 47.694,47.726-47.696,47.725 47.696,47.727zm-255.337,208.141-127.934-127.932h-95.951c-17.678,0-31.983-14.307-31.983-31.983v-191.903c0-17.679 14.307-31.983 31.983-31.983h95.951l127.934-127.934c0,0 31.983-3.998 31.983,31.983 0,173.535 0,425.718 0,447.769 0,35.981-31.983,31.983-31.983,31.983zm-31.984-383.802-63.968,63.967h-95.95v127.934h95.951l63.968,63.969v-255.87z"/>
</svg>

<?xml version="1.0" encoding="utf-8"?>
<!-- Generator: Adobe Illustrator 17.0.0, SVG Export Plug-In . SVG Version: 6.00 Build 0)  -->
<!DOCTYPE svg PUBLIC "-//W3C//DTD SVG 1.1//EN" "http://www.w3.org/Graphics/SVG/1.1/DTD/svg11.dtd">
<svg version="1.1" id="Ebene_1" xmlns="http://www.w3.org/2000/svg" xmlns:xlink="http://www.w3.org/1999/xlink" x="0px" y="0px"
	 width="512px" height="512px" viewBox="0 0 512 512" enable-background="new 0 0 512 512" xml:space="preserve">
<path fill="#FF4242" d="M511.603,303.727l-47.694,47.726l-47.726-47.726l-47.726,47.726l-47.693-47.726L368.457,256l-47.693-47.725
	l47.693-47.726l47.726,47.726l47.726-47.726l47.694,47.726L463.907,256L511.603,303.727L511.603,303.727z M256.266,511.868
	L128.332,383.936H32.381c-17.678,0-31.983-14.307-31.983-31.983V160.05c0-17.679,14.307-31.983,31.983-31.983h95.951L256.266,0.133
	c0,0,31.983-3.998,31.983,31.983c0,173.535,0,425.718,0,447.769C288.249,515.866,256.266,511.868,256.266,511.868z"/>
</svg>
